flaticon/transport/traffic-light.svg

<svg xmlns="http://www.w3.org/2000/svg" width="32" height="32" viewBox="0 0 24 24">
    <path d="M14.800781 3.199219C13.921875 3.199219 13.199219 3.921875 13.199219 4.800781 13.199219 5.679688 13.921875 6.398438 14.800781 6.398438 15.679688 6.398438 16.398438 5.679688 16.398438 4.800781 16.398438 3.921875 15.679688 3.199219 14.800781 3.199219zM14.800781 5.601562C14.359375 5.601562 14 5.238281 14 4.800781 14 4.359375 14.359375 4 14.800781 4 15.238281 4 15.601562 4.359375 15.601562 4.800781 15.601562 5.238281 15.238281 5.601562 14.800781 5.601562zM14.800781 7.199219C13.921875 7.199219 13.199219 7.921875 13.199219 8.800781 13.199219 9.679688 13.921875 10.398438 14.800781 10.398438 15.679688 10.398438 16.398438 9.679688 16.398438 8.800781 16.398438 7.921875 15.679688 7.199219 14.800781 7.199219zM14.800781 9.601562C14.359375 9.601562 14 9.238281 14 8.800781 14 8.359375 14.359375 8 14.800781 8 15.238281 8 15.601562 8.359375 15.601562 8.800781 15.601562 9.238281 15.238281 9.601562 14.800781 9.601562zM14.800781 11.199219C13.921875 11.199219 13.199219 11.921875 13.199219 12.800781 13.199219 13.679688 13.921875 14.398438 14.800781 14.398438 15.679688 14.398438 16.398438 13.679688 16.398438 12.800781 16.398438 11.921875 15.679688 11.199219 14.800781 11.199219zM14.800781 13.601562C14.359375 13.601562 14 13.238281 14 12.800781 14 12.359375 14.359375 12 14.800781 12 15.238281 12 15.601562 12.359375 15.601562 12.800781 15.601562 13.238281 15.238281 13.601562 14.800781 13.601562zM14.800781 13.601562"/>
    <path d="M 19.199219 4.398438 C 19.441406 4.398438 19.601562 4.238281 19.601562 4 C 19.601562 3.761719 19.441406 3.601562 19.199219 3.601562 C 18.746094 3.601562 18.332031 3.746094 18 3.992188 L 18 2.519531 C 18 2 17.601562 1.601562 17.078125 1.601562 L 16 1.601562 L 16 0.800781 L 19.199219 0.800781 C 19.441406 0.800781 19.601562 0.640625 19.601562 0.398438 C 19.601562 0.160156 19.441406 0 19.199219 0 L 10.800781 0 C 8.359375 0 6.398438 1.960938 6.398438 4.398438 L 6.398438 18.398438 L 6.121094 18.398438 C 5.601562 18.398438 5.199219 18.800781 5.199219 19.320312 L 5.199219 21.609375 C 4.738281 21.664062 4.398438 22.039062 4.398438 22.519531 L 4.398438 24 L 9.199219 24 L 9.199219 22.519531 C 9.199219 22.039062 8.859375 21.664062 8.398438 21.609375 L 8.398438 19.320312 C 8.398438 18.800781 8 18.398438 7.480469 18.398438 L 7.199219 18.398438 L 7.199219 4.398438 C 7.199219 2.398438 8.800781 0.800781 10.800781 0.800781 L 13.601562 0.800781 L 13.601562 1.601562 L 12.519531 1.601562 C 12 1.601562 11.601562 2 11.601562 2.519531 L 11.601562 3.992188 C 11.269531 3.746094 10.855469 3.601562 10.398438 3.601562 C 10.160156 3.601562 10 3.761719 10 4 C 10 4.238281 10.160156 4.398438 10.398438 4.398438 C 11.078125 4.398438 11.601562 4.921875 11.601562 5.601562 L 11.601562 7.992188 C 11.269531 7.746094 10.855469 7.601562 10.398438 7.601562 C 10.160156 7.601562 10 7.761719 10 8 C 10 8.238281 10.160156 8.398438 10.398438 8.398438 C 11.078125 8.398438 11.601562 8.921875 11.601562 9.601562 L 11.601562 11.992188 C 11.269531 11.746094 10.855469 11.601562 10.398438 11.601562 C 10.160156 11.601562 10 11.761719 10 12 C 10 12.238281 10.160156 12.398438 10.398438 12.398438 C 11.078125 12.398438 11.601562 12.921875 11.601562 13.601562 L 11.601562 15.078125 C 11.601562 15.601562 12 16 12.519531 16 L 17.078125 16 C 17.601562 16 18 15.601562 18 15.078125 L 18 13.601562 C 18 12.921875 18.519531 12.398438 19.199219 12.398438 C 19.441406 12.398438 19.601562 12.238281 19.601562 12 C 19.601562 11.761719 19.441406 11.601562 19.199219 11.601562 C 18.746094 11.601562 18.332031 11.746094 18 11.992188 L 18 9.601562 C 18 8.921875 18.519531 8.398438 19.199219 8.398438 C 19.441406 8.398438 19.601562 8.238281 19.601562 8 C 19.601562 7.761719 19.441406 7.601562 19.199219 7.601562 C 18.746094 7.601562 18.332031 7.746094 18 7.992188 L 18 5.601562 C 18 4.921875 18.519531 4.398438 19.199219 4.398438 Z M 8.398438 23.199219 L 5.199219 23.199219 L 5.199219 22.519531 C 5.199219 22.441406 5.238281 22.398438 5.320312 22.398438 L 8.28125 22.398438 C 8.359375 22.398438 8.398438 22.441406 8.398438 22.519531 Z M 7.601562 19.320312 L 7.601562 21.601562 L 6 21.601562 L 6 19.320312 C 6 19.238281 6.039062 19.199219 6.121094 19.199219 L 7.480469 19.199219 C 7.558594 19.199219 7.601562 19.238281 7.601562 19.320312 Z M 14.398438 0.800781 L 15.199219 0.800781 L 15.199219 1.601562 L 14.398438 1.601562 Z M 17.199219 15.078125 C 17.199219 15.160156 17.160156 15.199219 17.078125 15.199219 L 12.519531 15.199219 C 12.441406 15.199219 12.398438 15.160156 12.398438 15.078125 L 12.398438 2.519531 C 12.398438 2.441406 12.441406 2.398438 12.519531 2.398438 L 17.078125 2.398438 C 17.160156 2.398438 17.199219 2.441406 17.199219 2.519531 Z M 17.199219 15.078125"/>
</svg>

<svg xmlns="http://www.w3.org/2000/svg" width="32" height="32" viewBox="0 0 24 24">
    <path d="M14.8 3.2c-.878 0-1.6.722-1.6 1.6 0 .88.722 1.598 1.6 1.598.88 0 1.598-.718 1.598-1.597 0-.88-.718-1.602-1.597-1.602zm0 2.402A.804.804 0 0 1 14 4.8c0-.442.36-.801.8-.801.438 0 .802.36.802.8 0 .438-.364.802-.801.802zm0 0M14.8 7.2c-.878 0-1.6.722-1.6 1.6 0 .88.722 1.598 1.6 1.598.88 0 1.598-.718 1.598-1.597 0-.88-.718-1.602-1.597-1.602zm0 2.402A.804.804 0 0 1 14 8.8c0-.442.36-.801.8-.801.438 0 .802.36.802.8 0 .438-.364.802-.801.802zm0 0M14.8 11.2c-.878 0-1.6.722-1.6 1.6 0 .88.722 1.598 1.6 1.598.88 0 1.598-.718 1.598-1.597 0-.88-.718-1.602-1.597-1.602zm0 2.402a.804.804 0 0 1-.8-.801c0-.442.36-.801.8-.801.438 0 .802.36.802.8 0 .438-.364.802-.801.802zm0 0"/>
    <path d="M19.2 4.398c.241 0 .402-.16.402-.398 0-.238-.16-.398-.403-.398-.453 0-.867.144-1.199.39V2.52a.903.903 0 0 0-.922-.918H16V.8h3.2c.241 0 .402-.16.402-.403 0-.238-.16-.398-.403-.398h-8.398a4.389 4.389 0 0 0-4.403 4.398v14h-.277a.909.909 0 0 0-.922.922v2.29c-.46.054-.8.43-.8.91V24h4.8v-1.48c0-.48-.34-.856-.8-.91v-2.29a.906.906 0 0 0-.919-.922H7.2v-14c0-2 1.6-3.597 3.6-3.597h2.802v.8H12.52a.902.902 0 0 0-.918.919v1.472a2.006 2.006 0 0 0-1.204-.39c-.238 0-.398.16-.398.398 0 .238.16.398.398.398.68 0 1.204.524 1.204 1.204v2.39a2.006 2.006 0 0 0-1.204-.39c-.238 0-.398.16-.398.398 0 .238.16.398.398.398.68 0 1.204.524 1.204 1.204v2.39a2.006 2.006 0 0 0-1.204-.39c-.238 0-.398.16-.398.398 0 .238.16.398.398.398.68 0 1.204.524 1.204 1.204v1.476c0 .524.398.922.918.922h4.558a.904.904 0 0 0 .922-.922v-1.476c0-.68.52-1.204 1.2-1.204.241 0 .402-.16.402-.398 0-.238-.16-.398-.403-.398-.453 0-.867.144-1.199.39v-2.39c0-.68.52-1.204 1.2-1.204.241 0 .402-.16.402-.398 0-.238-.16-.398-.403-.398-.453 0-.867.144-1.199.39v-2.39c0-.68.52-1.204 1.2-1.204zM8.397 23.2H5.2v-.68c0-.078.04-.12.121-.12h2.961c.078 0 .117.042.117.12zm-.796-3.879v2.282H6V19.32c0-.082.04-.12.121-.12h1.36c.078 0 .12.038.12.12zM14.398.8h.801v.802h-.8zM17.2 15.079c0 .082-.039.121-.12.121h-4.56c-.078 0-.12-.039-.12-.12V2.518c0-.078.042-.12.12-.12h4.56c.081 0 .12.042.12.12zm0 0"/>
</svg>
